contributed-vectors/presto_e_tickets.svg

<?xml version="1.0" encoding="UTF-8" standalone="no"?>
<svg
   viewBox="0 0 192 192"
   version="1.1"
   id="svg16"
   sodipodi:docname="presto_e_tickets.svg"
   inkscape:version="1.2.1 (9c6d41e410, 2022-07-14)"
   inkscape:export-filename="presto_e_tickets_alt2.png"
   inkscape:export-xdpi="96"
   inkscape:export-ydpi="96"
   xml:space="preserve"
   xmlns:inkscape="http://www.inkscape.org/namespaces/inkscape"
   xmlns:sodipodi="http://sodipodi.sourceforge.net/DTD/sodipodi-0.dtd"
   xmlns="http://www.w3.org/2000/svg"
   xmlns:svg="http://www.w3.org/2000/svg"><sodipodi:namedview
     id="namedview18"
     pagecolor="#ffffff"
     bordercolor="#000000"
     borderopacity="0.25"
     inkscape:showpageshadow="2"
     inkscape:pageopacity="0.0"
     inkscape:pagecheckerboard="true"
     inkscape:deskcolor="#d1d1d1"
     showgrid="false"
     inkscape:zoom="4"
     inkscape:cx="46.125"
     inkscape:cy="116.5"
     inkscape:window-width="1884"
     inkscape:window-height="972"
     inkscape:window-x="26"
     inkscape:window-y="23"
     inkscape:window-maximized="0"
     inkscape:current-layer="svg16" /><defs
     id="defs4"><inkscape:path-effect
       effect="powerclip"
       id="path-effect1193"
       is_visible="true"
       lpeversion="1"
       inverse="true"
       flatten="false"
       hide_clip="false"
       message="Use fill-rule evenodd on &lt;b&gt;fill and stroke&lt;/b&gt; dialog if no flatten result after convert clip to paths." /><style
       id="style2">.a{fill:none;stroke:#b1b5bd;stroke-linecap:round;stroke-linejoin:round;isolation:isolate;opacity:0.63;}</style><clipPath
       clipPathUnits="userSpaceOnUse"
       id="clipPath1185"><g
         id="g1191"
         style="display:none"><circle
           style="fill:#56595b;stroke:none;stroke-width:7.5"
           id="circle1187"
           r="24"
           cy="96"
           cx="184"
           d="m 208,96 a 24,24 0 0 1 -24,24 24,24 0 0 1 -24,-24 24,24 0 0 1 24,-24 24,24 0 0 1 24,24 z" /><circle
           style="fill:#56595b;stroke:none;stroke-width:7.5"
           id="circle1189"
           cx="8"
           cy="96"
           r="24"
           d="M 32,96 A 24,24 0 0 1 8,120 24,24 0 0 1 -16,96 24,24 0 0 1 8,72 24,24 0 0 1 32,96 Z" /></g><path
         id="lpe_path-effect1193"
         class="powerclip"
         d="M 3,27 H 67.148834 V 165 H 3 Z m 205,69 a 24,24 0 0 0 -24,-24 24,24 0 0 0 -24,24 24,24 0 0 0 24,24 24,24 0 0 0 24,-24 z M 32,96 A 24,24 0 0 0 8,72 24,24 0 0 0 -16,96 24,24 0 0 0 8,120 24,24 0 0 0 32,96 Z" /></clipPath><clipPath
       clipPathUnits="userSpaceOnUse"
       id="clipPath1185-3"><g
         id="g1191-6"
         style="display:none"><circle
           style="fill:#56595b;stroke:none;stroke-width:7.5"
           id="circle1187-7"
           r="24"
           cy="96"
           cx="184"
           d="m 208,96 a 24,24 0 0 1 -24,24 24,24 0 0 1 -24,-24 24,24 0 0 1 24,-24 24,24 0 0 1 24,24 z" /><circle
           style="fill:#56595b;stroke:none;stroke-width:7.5"
           id="circle1189-5"
           cx="8"
           cy="96"
           r="24"
           d="M 32,96 A 24,24 0 0 1 8,120 24,24 0 0 1 -16,96 24,24 0 0 1 8,72 24,24 0 0 1 32,96 Z" /></g><path
         id="lpe_path-effect1193-3"
         class="powerclip"
         d="M 3,27 H 189 V 165 H 3 Z m 205,69 a 24,24 0 0 0 -24,-24 24,24 0 0 0 -24,24 24,24 0 0 0 24,24 24,24 0 0 0 24,-24 z M 32,96 A 24,24 0 0 0 8,72 24,24 0 0 0 -16,96 24,24 0 0 0 8,120 24,24 0 0 0 32,96 Z" /></clipPath><inkscape:path-effect
       effect="powerclip"
       id="path-effect1193-5"
       is_visible="true"
       lpeversion="1"
       inverse="true"
       flatten="false"
       hide_clip="false"
       message="Use fill-rule evenodd on &lt;b&gt;fill and stroke&lt;/b&gt; dialog if no flatten result after convert clip to paths." /><clipPath
       clipPathUnits="userSpaceOnUse"
       id="clipath_lpe_path-effect1193-5"><g
         id="g426"
         style="display:none"><circle
           style="fill:#56595b;stroke:none;stroke-width:7.5"
           id="circle422"
           r="24"
           cy="96"
           cx="184"
           d="m 208,96 a 24,24 0 0 1 -24,24 24,24 0 0 1 -24,-24 24,24 0 0 1 24,-24 24,24 0 0 1 24,24 z" /><circle
           style="fill:#56595b;stroke:none;stroke-width:7.5"
           id="circle424"
           cx="8"
           cy="96"
           r="24"
           d="M 32,96 A 24,24 0 0 1 8,120 24,24 0 0 1 -16,96 24,24 0 0 1 8,72 24,24 0 0 1 32,96 Z" /></g><path
         id="lpe_path-effect1193-5"
         class="powerclip"
         d="M 57.14883,27 H 189 V 165 H 57.14883 Z M 208,96 a 24,24 0 0 0 -24,-24 24,24 0 0 0 -24,24 24,24 0 0 0 24,24 24,24 0 0 0 24,-24 z M 32,96 A 24,24 0 0 0 8,72 24,24 0 0 0 -16,96 24,24 0 0 0 8,120 24,24 0 0 0 32,96 Z" /></clipPath><mask
       maskUnits="userSpaceOnUse"
       id="mask433"><rect
         style="fill:#ffffff;stroke-width:24"
         id="rect435"
         width="54.148834"
         height="128"
         x="8"
         y="32"
         rx="0"
         ry="0"
         d="M 8,32 H 62.148834 V 160 H 8 Z" /></mask><mask
       maskUnits="userSpaceOnUse"
       id="mask441"><rect
         style="fill:#ffffff;stroke-width:24"
         id="rect443"
         width="121.85117"
         height="128"
         x="62.14883"
         y="32"
         rx="0"
         ry="0"
         d="M 62.14883,32 H 184 V 160 H 62.14883 Z" /></mask></defs><rect
     class="a"
     x="20"
     y="20"
     width="152"
     height="152"
     rx="10"
     id="rect6"
     style="display:none" /><circle
     class="a"
     cx="96"
     cy="96"
     r="36.5"
     id="circle10"
     style="display:none" /><circle
     class="a"
     cx="96"
     cy="96"
     r="88"
     id="circle8"
     style="display:none" /><rect
     class="a"
     x="32"
     y="8"
     width="128"
     height="176"
     rx="10"
     id="rect12"
     style="display:none" /><rect
     class="a"
     x="8"
     y="32"
     width="176"
     height="128"
     rx="10"
     id="rect14"
     style="stroke:none;fill:#98dc9a;opacity:1"
     clip-path="url(#clipPath1185)"
     inkscape:path-effect="#path-effect1193"
     d="m 18,32 h 156 c 5.54,0 10,4.46 10,10 v 108 c 0,5.54 -4.46,10 -10,10 H 18 C 12.46,160 8,155.54 8,150 V 42 C 8,36.46 12.46,32 18,32 Z"
     mask="url(#mask433)" /><path
     class="a"
     x="8"
     y="32"
     width="176"
     height="128"
     rx="10"
     id="rect14-6"
     style="isolation:isolate;fill:#ffffff;stroke:none;stroke-linecap:round;stroke-linejoin:round;opacity:1"
     clip-path="url(#clipath_lpe_path-effect1193-5)"
     inkscape:path-effect="#path-effect1193-5"
     d="m 18,32 h 156 c 5.54,0 10,4.46 10,10 v 108 c 0,5.54 -4.46,10 -10,10 H 18 C 12.46,160 8,155.54 8,150 V 42 C 8,36.46 12.46,32 18,32 Z"
     sodipodi:type="rect"
     ry="10"
     mask="url(#mask441)" /><text
     xml:space="preserve"
     style="font-style:normal;font-variant:normal;font-weight:bold;font-stretch:normal;font-size:25.0421px;font-family:Now;-inkscape-font-specification:'Now Bold';text-align:center;text-anchor:middle;opacity:1;fill:#56595b;stroke-width:24"
     x="121.17133"
     y="143.74959"
     id="text1813"><tspan
       sodipodi:role="line"
       id="tspan1811"
       x="121.17133"
       y="143.74959"
       style="stroke-width:24">PRESTO</tspan></text><path
     style="fill:#98dc9a;stroke:#ffffff;stroke-width:4;stroke-dasharray:none"
     d="M 61,160 V 32"
     id="path3100" /><g
     style="display:none;fill:#000000;stroke-width:3"
     id="g2880"
     transform="matrix(0.66666667,0,0,0.66666667,74.999923,108.71759)"><g
       id="g2867"
       style="stroke-width:3"><rect
         fill="none"
         height="24"
         width="24"
         id="rect2865"
         x="0"
         y="0"
         style="stroke-width:2.05474" /></g><path
       d="m 15,21 h -2 v -2 h 2 z m -2,-7 h -2 v 5 h 2 z m 8,-2 h -2 v 4 h 2 z m -2,-2 h -2 v 2 h 2 z M 7,12 H 5 v 2 H 7 Z M 5,10 H 3 v 2 h 2 z m 7,-5 h 2 V 3 H 12 Z M 4.5,4.5 v 3 h 3 v -3 z M 8,9 H 4 C 3.45,9 3,8.55 3,8 V 4 C 3,3.45 3.45,3 4,3 H 8 C 8.55,3 9,3.45 9,4 V 8 C 9,8.55 8.55,9 8,9 Z m -3.5,7.5 v 3 h 3 v -3 z M 8,21 H 4 C 3.45,21 3,20.55 3,20 v -4 c 0,-0.55 0.45,-1 1,-1 h 4 c 0.55,0 1,0.45 1,1 v 4 c 0,0.55 -0.45,1 -1,1 z M 16.5,4.5 v 3 h 3 v -3 z M 20,9 H 16 C 15.45,9 15,8.55 15,8 V 4 c 0,-0.55 0.45,-1 1,-1 h 4 c 0.55,0 1,0.45 1,1 v 4 c 0,0.55 -0.45,1 -1,1 z m -1,10 v -3 h -4 v 2 h 2 v 3 h 4 v -2 z m -2,-7 h -4 v 2 h 4 z M 13,10 H 7 v 2 h 2 v 2 h 2 v -2 h 2 z M 14,9 V 7 H 12 V 5 H 10 V 9 Z M 6.75,5.25 h -1.5 v 1.5 h 1.5 z m 0,12 h -1.5 v 1.5 h 1.5 z m 12,-12 h -1.5 v 1.5 h 1.5 z"
       id="path2869"
       style="fill:#ececec;stroke-width:3" /></g><path
     d="M 115.47839,108.71759 H 108.732 v -6.74638 h 6.74639 z M 108.732,85.105194 h -6.74641 v 16.866016 h 6.74641 z m 26.98559,-6.746398 h -6.7464 v 13.492797 h 6.7464 z m -6.7464,-6.746399 h -6.7464 v 6.746399 h 6.7464 z m -40.478387,6.746399 h -6.746399 v 6.746398 h 6.746399 z m -6.746399,-6.746399 h -6.746399 v 6.746399 h 6.746399 z M 105.3588,54.746403 h 6.7464 v -6.746399 h -6.7464 z M 80.059806,53.059805 V 63.1794 H 90.179401 V 53.059805 Z m 11.806192,15.179396 h -13.49279 c -1.855263,0 -3.373203,-1.517939 -3.373203,-3.373203 v -13.49279 c 0,-1.855264 1.51794,-3.373204 3.373203,-3.373204 h 13.49279 c 1.855264,0 3.373204,1.51794 3.373204,3.373204 v 13.49279 c 0,1.855264 -1.51794,3.373203 -3.373204,3.373203 z M 80.059806,93.538191 V 103.65779 H 90.179401 V 93.538191 Z m 11.806192,15.179399 h -13.49279 c -1.855263,0 -3.373203,-1.51794 -3.373203,-3.37321 V 91.851593 c 0,-1.855263 1.51794,-3.373203 3.373203,-3.373203 h 13.49279 c 1.855264,0 3.373204,1.51794 3.373204,3.373203 v 13.492787 c 0,1.85527 -1.51794,3.37321 -3.373204,3.37321 z M 120.53819,53.059805 V 63.1794 h 10.1196 V 53.059805 Z m 11.80619,15.179396 h -13.49279 c -1.85526,0 -3.3732,-1.517939 -3.3732,-3.373203 v -13.49279 c 0,-1.855264 1.51794,-3.373204 3.3732,-3.373204 h 13.49279 c 1.85527,0 3.37321,1.51794 3.37321,3.373204 v 13.49279 c 0,1.855264 -1.51794,3.373203 -3.37321,3.373203 z m -3.37319,33.732009 V 91.851593 h -13.4928 v 6.746399 h 6.7464 v 10.119598 h 13.4928 v -6.74638 z m -6.7464,-23.612414 H 108.732 v 6.746398 h 13.49279 z M 108.732,71.612397 H 88.492803 v 6.746399 h 6.746399 v 6.746398 h 6.746388 v -6.746398 h 6.74641 z m 3.3732,-3.373196 v -6.746399 h -6.7464 V 54.746403 H 98.612397 V 68.239201 Z M 87.649504,55.589702 h -5.059801 v 5.059801 h 5.059801 z m 0,40.478386 h -5.059801 v 5.059812 h 5.059801 z M 128.12789,55.589702 h -5.0598 v 5.059801 h 5.0598 z"
     id="path2869-9"
     style="display:none;fill:#ececec;stroke-width:1.33333" /><g
     id="g3845"
     style="display:none;fill:#000000;stroke-width:0.296454"
     transform="matrix(3.3731991,0,0,3.3731991,64.880408,37.880407)"><g
       id="g3843"
       style="stroke-width:0.296454"><path
         d="m 5,11 h 4 c 1.1,0 2,-0.9 2,-2 V 5 C 11,3.9 10.1,3 9,3 H 5 C 3.9,3 3,3.9 3,5 v 4 c 0,1.1 0.9,2 2,2 z M 5,5 H 9 V 9 H 5 Z"
         id="path3821"
         style="fill:#ececec;fill-opacity:1;stroke-width:0.296454" /><path
         d="m 5,21 h 4 c 1.1,0 2,-0.9 2,-2 V 15 C 11,13.9 10.1,13 9,13 H 5 c -1.1,0 -2,0.9 -2,2 v 4 c 0,1.1 0.9,2 2,2 z m 0,-6 h 4 v 4 H 5 Z"
         id="path3823"
         style="fill:#ececec;fill-opacity:1;stroke-width:0.296454" /><path
         d="m 13,5 v 4 c 0,1.1 0.9,2 2,2 h 4 c 1.1,0 2,-0.9 2,-2 V 5 C 21,3.9 20.1,3 19,3 h -4 c -1.1,0 -2,0.9 -2,2 z m 6,4 H 15 V 5 h 4 z"
         id="path3825"
         style="fill:#ececec;fill-opacity:1;stroke-width:0.296454" /><path
         d="m 21,20.5 v -1 C 21,19.22 20.78,19 20.5,19 h -1 C 19.22,19 19,19.22 19,19.5 v 1 c 0,0.28 0.22,0.5 0.5,0.5 h 1 c 0.28,0 0.5,-0.22 0.5,-0.5 z"
         id="path3827"
         style="fill:#ececec;fill-opacity:1;stroke-width:0.296454" /><path
         d="m 13,13.5 v 1 c 0,0.28 0.22,0.5 0.5,0.5 h 1 c 0.28,0 0.5,-0.22 0.5,-0.5 v -1 C 15,13.22 14.78,13 14.5,13 h -1 C 13.22,13 13,13.22 13,13.5 Z"
         id="path3829"
         style="fill:#ececec;fill-opacity:1;stroke-width:0.296454" /><path
         d="m 16.5,15 h -1 C 15.22,15 15,15.22 15,15.5 v 1 c 0,0.28 0.22,0.5 0.5,0.5 h 1 c 0.28,0 0.5,-0.22 0.5,-0.5 v -1 C 17,15.22 16.78,15 16.5,15 Z"
         id="path3831"
         style="fill:#ececec;fill-opacity:1;stroke-width:0.296454" /><path
         d="m 13,17.5 v 1 c 0,0.28 0.22,0.5 0.5,0.5 h 1 c 0.28,0 0.5,-0.22 0.5,-0.5 v -1 C 15,17.22 14.78,17 14.5,17 h -1 C 13.22,17 13,17.22 13,17.5 Z"
         id="path3833"
         style="fill:#ececec;fill-opacity:1;stroke-width:0.296454" /><path
         d="m 15.5,21 h 1 c 0.28,0 0.5,-0.22 0.5,-0.5 v -1 C 17,19.22 16.78,19 16.5,19 h -1 C 15.22,19 15,19.22 15,19.5 v 1 c 0,0.28 0.22,0.5 0.5,0.5 z"
         id="path3835"
         style="fill:#ececec;fill-opacity:1;stroke-width:0.296454" /><path
         d="m 17.5,19 h 1 c 0.28,0 0.5,-0.22 0.5,-0.5 v -1 C 19,17.22 18.78,17 18.5,17 h -1 C 17.22,17 17,17.22 17,17.5 v 1 c 0,0.28 0.22,0.5 0.5,0.5 z"
         id="path3837"
         style="fill:#ececec;fill-opacity:1;stroke-width:0.296454" /><path
         d="m 18.5,13 h -1 C 17.22,13 17,13.22 17,13.5 v 1 c 0,0.28 0.22,0.5 0.5,0.5 h 1 c 0.28,0 0.5,-0.22 0.5,-0.5 v -1 C 19,13.22 18.78,13 18.5,13 Z"
         id="path3839"
         style="fill:#ececec;fill-opacity:1;stroke-width:0.296454" /><path
         d="m 19.5,17 h 1 c 0.28,0 0.5,-0.22 0.5,-0.5 v -1 C 21,15.22 20.78,15 20.5,15 h -1 C 19.22,15 19,15.22 19,15.5 v 1 c 0,0.28 0.22,0.5 0.5,0.5 z"
         id="path3841"
         style="fill:#ececec;fill-opacity:1;stroke-width:0.296454" /></g></g></svg>

<svg xmlns="http://www.w3.org/2000/svg" xml:space="preserve" id="svg16" version="1.1" viewBox="0 0 192 192"><defs id="defs4"><clipPath id="clipPath1185" clipPathUnits="userSpaceOnUse"><path id="lpe_path-effect1193" d="M3 27h64.149v138H3Zm205 69a24 24 0 0 0-24-24 24 24 0 0 0-24 24 24 24 0 0 0 24 24 24 24 0 0 0 24-24zM32 96A24 24 0 0 0 8 72a24 24 0 0 0-24 24 24 24 0 0 0 24 24 24 24 0 0 0 24-24Z" class="powerclip"/></clipPath><clipPath id="clipPath1185-3" clipPathUnits="userSpaceOnUse"><path id="lpe_path-effect1193-3" d="M3 27h186v138H3Zm205 69a24 24 0 0 0-24-24 24 24 0 0 0-24 24 24 24 0 0 0 24 24 24 24 0 0 0 24-24zM32 96A24 24 0 0 0 8 72a24 24 0 0 0-24 24 24 24 0 0 0 24 24 24 24 0 0 0 24-24Z" class="powerclip"/></clipPath><clipPath id="clipath_lpe_path-effect1193-5" clipPathUnits="userSpaceOnUse"><path id="lpe_path-effect1193-5" d="M57.149 27H189v138H57.149ZM208 96a24 24 0 0 0-24-24 24 24 0 0 0-24 24 24 24 0 0 0 24 24 24 24 0 0 0 24-24zM32 96A24 24 0 0 0 8 72a24 24 0 0 0-24 24 24 24 0 0 0 24 24 24 24 0 0 0 24-24Z" class="powerclip"/></clipPath><mask id="mask433" maskUnits="userSpaceOnUse"><rect id="rect435" width="54.149" height="128" x="8" y="32" rx="0" ry="0" style="fill:#fff;stroke-width:24"/></mask><mask id="mask441" maskUnits="userSpaceOnUse"><rect id="rect443" width="121.851" height="128" x="62.149" y="32" rx="0" ry="0" style="fill:#fff;stroke-width:24"/></mask><style id="style2">.a{fill:none;stroke:#b1b5bd;stroke-linecap:round;stroke-linejoin:round;isolation:isolate;opacity:.63}</style></defs><rect id="rect14" width="176" height="128" x="8" y="32" class="a" clip-path="url(#clipPath1185)" mask="url(#mask433)" rx="10" style="stroke:none;fill:#98dc9a;opacity:1"/><path id="rect14-6" d="M18 32h156c5.54 0 10 4.46 10 10v108c0 5.54-4.46 10-10 10H18c-5.54 0-10-4.46-10-10V42c0-5.54 4.46-10 10-10Z" class="a" clip-path="url(#clipath_lpe_path-effect1193-5)" mask="url(#mask441)" style="isolation:isolate;fill:#fff;stroke:none;stroke-linecap:round;stroke-linejoin:round;opacity:1"/><text xml:space="preserve" id="text1813" x="121.171" y="143.75" style="font-style:normal;font-variant:normal;font-weight:700;font-stretch:normal;font-size:25.0421px;font-family:Now;-inkscape-font-specification:&quot;Now Bold&quot;;text-align:center;text-anchor:middle;opacity:1;fill:#56595b;stroke-width:24"><tspan id="tspan1811" x="121.171" y="143.75" style="stroke-width:24">PRESTO</tspan></text><path id="path3100" d="M61 160V32" style="fill:#98dc9a;stroke:#fff;stroke-width:4;stroke-dasharray:none"/></svg>
